**kern	**silbe	**kern	**silbe	**harmony	**chordsym	**phrase	**timestamp	**leadinstrument
*ICvox	*	*ICvox	*	*M4/4	*M4/4	*	*	*
*E:	*	*E:	*	*E:	*E:	*	*	*
*M4/4	*	*M4/4	*	*	*	*	*	*
*clefF4	*	*clefC3	*	*	*	*	*	*
r;	.	r;	.	1r;	r	.	0	r
r;	.	r;	.	1r;	r	.	0.534	r
=1	=1	=1	=1	=1	=1	=1	=1	=1
*	*	*	*	*>A_intro	*>A_intro	*>A_intro	*>A_intro	*>A_intro
1r	.	1r	.	1EMm	E:7 (E G# B D)	newline	26.471	r
=2	=2	=2	=2	=2	=2	=2	=2	=2
2r	.	2r	.	1EMm	E:7 (E G# B D)	.	.	r
4r	.	4r	.	.	.	.	.	.
8Gq	_	8B-q	_	.	.	.	.	.
8G#	Got	8B	Got	.	.	.	.	.
8G#	me	8B	me	.	.	.	.	.
=3	=3	=3	=3	=3	=3	=3	=3	=3
*	*	*	*	*>B_verse	*>B_verse	*>B_verse	*>B_verse	*>B_verse
8B	run-	8d	run-	1EMm	E:7 (E G# B D)	newline	32.685	voice
8B	-nin'	8d	-nin'	.	.	.	.	.
4r	.	4r	.	.	.	.	.	.
8r	.	8r	.	.	.	.	.	.
8BB	you	8G#	you	.	.	.	.	.
8Gq	_	8B-q	_	.	.	.	.	.
8G#	got	8B	got	.	.	.	.	.
8G#	me	8B	me	.	.	.	.	.
=4	=4	=4	=4	=4	=4	=4	=4	=4
8B	hi-	8d	hi-	1EMm	E:7 (E G# B D)	.	.	voice
8B	-din'	8d	-din'	.	.	.	.	.
4r	.	4r	.	.	.	.	.	.
8r	.	8r	.	.	.	.	.	.
8BB	you	8G#	you	.	.	.	.	.
8Gq	_	8B-q	_	.	.	.	.	.
8G#	got	8B	got	.	.	.	.	.
8G#	me	8B	me	.	.	.	.	.
=5	=5	=5	=5	=5	=5	=5	=5	=5
8Aq	_	8c#q	_	.	.	.	.	.
4B	run,	4d	run,	1EMm	E:7 (E G# B D)	.	.	voice
8Aq	_	8c#q	_	.	.	.	.	.
4B	hide,	4d	hide,	.	.	.	.	.
8Aq	_	8c#q	_	.	.	.	.	.
4B	hide,	4d	hide,	.	.	.	.	.
8Aq	_	8c#q	_	.	.	.	.	.
8B	run,	8d	run,	.	.	.	.	.
[8B	a	[8d	a	.	.	.	.	.
=6	=6	=6	=6	=6	=6	=6	=6	=6
8B]	_	8d]	_	1EMm	E:7 (E G# B D)	.	.	voice
8B	ny-	8d	ny	.	.	.	.	.
8A	-way	4r	.	.	.	.	.	.
8B	you	.	.	.	.	.	.	.
8G	wan-	2r	.	.	.	.	.	.
8F#	-na	.	.	.	.	.	.	.
8E	let	.	.	.	.	.	.	.
8D	it	.	.	.	.	.	.	.
=7	=7	=7	=7	=7	=7	=7	=7	=7
8C#q	_	.	.	.	.	.	.	.
4.G	roll	1r	.	1AMm	A:7 (A C# E G)	newline	43.203	voice
8r	.	.	.	.	.	.	.	.
2r	.	.	.	.	.	.	.	.
=8	=8	=8	=8	=8	=8	=8	=8	=8
4.B	Yeah,	4d	yeah,	1AMm	A:7 (A C# E G)	.	.	voice
.	.	8B	_	.	.	.	.	.
8A	y-	8B	yeah!	.	.	.	.	.
4B	-yeah,	[4B	_	.	.	.	.	.
8A	y-	8B]	_	.	.	.	.	.
8B	-yeah	8B	_	.	.	.	.	.
=9	=9	=9	=9	=9	=9	=9	=9	=9
8Gq	_	.	.	.	.	.	.	.
4G#	_	1r	.	1EMm	E:7 (E G# B D)	.	.	voice
4r	.	.	.	.	.	.	.	.
2r	.	.	.	.	.	.	.	.
=10	=10	=10	=10	=10	=10	=10	=10	=10
2r	.	1r	.	1EMm	E:7 (E G# B D)	.	.	voice
8r	.	.	.	.	.	.	.	.
8BB	You've	.	.	.	.	.	.	.
8Gq	_	.	.	.	.	.	.	.
8G#	got	.	.	.	.	.	.	.
8G#	me	.	.	.	.	.	.	.
=11	=11	=11	=11	=11	=11	=11	=11	=11
8Aq	_	8c#q	_	.	.	.	.	.
4B	doin'	4d	doin'	2BMm	B:7 (F# B D# A)	newline	53.561	voice
8B	what	8d	what	.	.	.	.	.
8A	you	8B	you	.	.	.	.	.
8A	want	8B	want	2BMm	B:7 (B D# F# A)	.	.	voice
[8A	me,	[8B	me,	.	.	.	.	.
8A]	_	8B]	_	.	.	.	.	.
8C#	a-	8C#	a-	.	.	.	.	.
=12	=12	=12	=12	=12	=12	=12	=12	=12
8Aq	_	8c#q	_	.	.	.	.	.
8B	-ba-	8d	-ba-	2BMm	B:7 (F# B D# A)	.	.	voice
8B	-by,	8d	-by,	.	.	.	.	.
8A	why	8d	why	.	.	.	.	.
8G	you	8c#	you	.	.	.	.	.
8G	wan-	8B	wan-	2BMm	B:7 (B D# F# A)	.	.	voice
8F#	-na	8B	-na	.	.	.	.	.
8E	let	8A	let	.	.	.	.	.
.	.	8Gq	_	.	.	.	.	.
[8E	go	8G#	go	.	.	.	.	.
=13	=13	=13	=13	=13	=13	=13	=13	=13
4E]	_	1r	.	1EMm	E:7 (E G# B D)	.	.	voice
4r	.	.	.	.	.	.	.	.
2r	.	.	.	.	.	.	.	.
=14	=14	=14	=14	=14	=14	=14	=14	=14
2r	.	2r	.	2EMm	E:7 (E G# B D)	.	.	voice
4r	.	4r	.	2BMm	B:7 (B D# F# A)	.	.	voice
8Gq	_	8B-q	_	.	.	.	.	.
8G#	Go-	8B	Go-	.	.	.	.	.
8G#	-in'	8B	-in'	.	.	.	.	.
=15	=15	=15	=15	=15	=15	=15	=15	=15
*	*	*	*	*>B_verse	*>B_verse	*>B_verse	*>B_verse	*>B_verse
8B	up	8d	up	1EMm	E:7 (E G# B D)	newline	63.852	voice
8r	.	8r	.	.	.	.	.	.
4r	.	4r	.	.	.	.	.	.
8r	.	8r	.	.	.	.	.	.
8BB	I'm	8G#	I'm	.	.	.	.	.
8Gq	_	8B-q	_	.	.	.	.	.
8G#	go-	8B	go-	.	.	.	.	.
8G#	-in'	8B	-in'	.	.	.	.	.
=16	=16	=16	=16	=16	=16	=16	=16	=16
8B	down	8d	down	1EMm	E:7 (E G# B D)	.	.	voice
8r	.	8r	.	.	.	.	.	.
4r	.	4r	.	.	.	.	.	.
8r	.	8r	.	.	.	.	.	.
8BB	I'm	8G#	I'm	.	.	.	.	.
8Gq	_	8B-q	_	.	.	.	.	.
8G#	go-	8B	go-	.	.	.	.	.
8G#	-in'	8B	-in'	.	.	.	.	.
=17	=17	=17	=17	=17	=17	=17	=17	=17
8Aq	_	8c#q	_	.	.	.	.	.
4B	up,	4d	up,	1EMm	E:7 (E G# B D)	.	.	voice
8Aq	_	8c#q	_	.	.	.	.	.
4B	down,	4d	down,	.	.	.	.	.
8Aq	_	8c#q	_	.	.	.	.	.
4B	down,	4d	down,	.	.	.	.	.
8Aq	_	8c#q	_	.	.	.	.	.
8B	up	8d	up	.	.	.	.	.
[8B	a	[8d	a	.	.	.	.	.
=18	=18	=18	=18	=18	=18	=18	=18	=18
8B]	_	8d]	_	1EMm	E:7 (E G# B D)	.	.	voice
8B	ny-	8d	ny-	.	.	.	.	.
8A	-way	8B	-way	.	.	.	.	.
8B	you	8A	you	.	.	.	.	.
8G	wan-	8G	wan	.	.	.	.	.
8F#	-na	8r	.	.	.	.	.	.
8E	let	4r	.	.	.	.	.	.
8D	it	.	.	.	.	.	.	.
=19	=19	=19	=19	=19	=19	=19	=19	=19
8C#q	_	.	.	.	.	.	.	.
4.G	roll	1r	.	1AMm	A:7 (A C# E G)	newline	74.176	voice
8r	.	.	.	.	.	.	.	.
2r	.	.	.	.	.	.	.	.
=20	=20	=20	=20	=20	=20	=20	=20	=20
4.B	Yeah,	4d	Yeah,	1AMm	A:7 (A C# E G)	.	.	voice
.	.	8B	_	.	.	.	.	.
8A	y-	8B	y-	.	.	.	.	.
4B	-yeah,	[4B	-yeah!	.	.	.	.	.
8A	y-	8B]	_	.	.	.	.	.
8B	-yeah	8B	_	.	.	.	.	.
=21	=21	=21	=21	=21	=21	=21	=21	=21
8Gq	_	.	.	.	.	.	.	.
4.G#	_	1r	.	1EMm	E:7 (E G# B D)	.	.	voice
16F#Q	_	.	.	.	.	.	.	.
16EQ	_	.	.	.	.	.	.	.
8r	.	.	.	.	.	.	.	.
2r	.	.	.	.	.	.	.	.
=22	=22	=22	=22	=22	=22	=22	=22	=22
2r	.	1r	.	1EMm	E:7 (E G# B D)	.	.	voice
8r	.	.	.	.	.	.	.	.
8BB	You've	.	.	.	.	.	.	.
8Gq	_	.	.	.	.	.	.	.
8G#	got	.	.	.	.	.	.	.
8G#	me	.	.	.	.	.	.	.
=23	=23	=23	=23	=23	=23	=23	=23	=23
8Aq	_	8c#q	_	.	.	.	.	.
4B	doin'	4d	doin'	2BMm	B:7 (F# B D# A)	newline	84.368	voice
8B	what	8d	what	.	.	.	.	.
8A	you	8B	you	.	.	.	.	.
8A	want	8B	want	2BMm	B:7 (B D# F# A)	.	.	voice
[8A	me,	[8B	me,	.	.	.	.	.
8A]	_	8B]	_	.	.	.	.	.
8C#	a'-	8C#	a'-	.	.	.	.	.
=24	=24	=24	=24	=24	=24	=24	=24	=24
8Aq	_	8c#q	_	.	.	.	.	.
8B	-ba-	8d	-ba-	2BMm	B:7 (F# B D# A)	.	.	voice
8B	-by	8d	-by	.	.	.	.	.
8A	why	8d	why	.	.	.	.	.
8G	you	8c#	you	.	.	.	.	.
8G	wan-	8B	wan-	2BMm	B:7 (B D# F# A)	.	.	voice
8F#	-na	8B	-na	.	.	.	.	.
.	.	8Gq	_	.	.	.	.	.
8E	let	8G#	let	.	.	.	.	.
.	.	8Gq	_	.	.	.	.	.
[8E	go	8G#	go	.	.	.	.	.
=25	=25	=25	=25	=25	=25	=25	=25	=25
8E]	_	1r	.	1EMm	E:7 (E G# B D)	.	.	voice
8r	.	.	.	.	.	.	.	.
4r	.	.	.	.	.	.	.	.
2r	.	.	.	.	.	.	.	.
=26	=26	=26	=26	=26	=26	=26	=26	=26
1r	.	1r	.	2EMm	E:7 (E G# B D)	.	.	voice
.	.	.	.	2BMm	B:7 (B D# F# A)	.	.	voice
=27	=27	=27	=27	=27	=27	=27	=27	=27
*	*	*	*	*>B_solo	*>B_solo	*>B_solo	*>B_solo	*>B_solo
1r	.	1r	.	1EMm	E:7 (E G# B D)	newline	94.553	harmonica
=28	=28	=28	=28	=28	=28	=28	=28	=28
1r	.	1r	.	1EMm	E:7 (E G# B D)	.	.	harmonica
=29	=29	=29	=29	=29	=29	=29	=29	=29
1r	.	1r	.	1EMm	E:7 (E G# B D)	.	.	harmonica
=30	=30	=30	=30	=30	=30	=30	=30	=30
1r	.	1r	.	1EMm	E:7 (E G# B D)	.	.	harmonica
=31	=31	=31	=31	=31	=31	=31	=31	=31
1r	.	1r	.	1AMm	A:7 (A C# E G)	newline	104.713	harmonica
=32	=32	=32	=32	=32	=32	=32	=32	=32
1r	.	1r	.	1AMm	A:7 (A C# E G)	.	.	harmonica
=33	=33	=33	=33	=33	=33	=33	=33	=33
1r	.	1r	.	1EMm	E:7 (E G# B D)	.	.	harmonica
=34	=34	=34	=34	=34	=34	=34	=34	=34
1r	.	1r	.	1EMm	E:7 (E G# B D)	.	.	harmonica
=35	=35	=35	=35	=35	=35	=35	=35	=35
1r	.	1r	.	2BMm	B:7 (F# B D# A)	newline	114.722	harmonica
.	.	.	.	2BMm	B:7 (B D# F# A)	.	.	harmonica
=36	=36	=36	=36	=36	=36	=36	=36	=36
1r	.	1r	.	2BMm	B:7 (F# B D# A)	.	.	harmonica
.	.	.	.	2BMm	B:7 (B D# F# A)	.	.	harmonica
=37	=37	=37	=37	=37	=37	=37	=37	=37
1r	.	1r	.	1EMm	E:7 (E G# B D)	.	.	harmonica
=38	=38	=38	=38	=38	=38	=38	=38	=38
2r	.	2r	.	2EMm	E:7 (E G# B D)	.	.	harmonica
8r	.	8r	.	2BMm	B:7 (B D# F# A)	.	.	harmonica
8BB	You've	8E	You've	.	.	.	.	.
8Gq	_	8B-q	_	.	.	.	.	.
8G#	got	8B	got	.	.	.	.	.
8G#	me	8B	me	.	.	.	.	.
=39	=39	=39	=39	=39	=39	=39	=39	=39
*	*	*	*	*>B_verse	*>B_verse	*>B_verse	*>B_verse	*>B_verse
8Aq	_	8c#q	_	.	.	.	.	.
8B	hi-	8d	hi-	1EMm	E:7 (E G# B D)	newline	124.717	voice
8B	-din'	8d	-din'	.	.	.	.	.
4r	.	4r	.	.	.	.	.	.
8r	.	8r	.	.	.	.	.	.
8BB	you've	8G#	you've	.	.	.	.	.
8Gq	_	8B-q	_	.	.	.	.	.
8G#	got	8B	got	.	.	.	.	.
8G#	me	8B	me	.	.	.	.	.
=40	=40	=40	=40	=40	=40	=40	=40	=40
8Aq	_	8c#q	_	.	.	.	.	.
8B	pee-	8d	pee-	1EMm	E:7 (E G# B D)	.	.	voice
8B	-pin'	8d	-pin'	.	.	.	.	.
4r	.	4r	.	.	.	.	.	.
8r	.	8r	.	.	.	.	.	.
8BB	you've	8G#	you've	.	.	.	.	.
8Gq	_	8B-q	_	.	.	.	.	.
8G#	got	8B	got	.	.	.	.	.
8G#	me	8B	me	.	.	.	.	.
=41	=41	=41	=41	=41	=41	=41	=41	=41
8Aq	_	8c#q	_	.	.	.	.	.
4B	peep,	4d	peep,	1EMm	E:7 (E G# B D)	.	.	voice
8Aq	_	8c#q	_	.	.	.	.	.
4B	hide,	4d	hide,	.	.	.	.	.
8Aq	_	8c#q	_	.	.	.	.	.
4B	hide,	4d	hide,	.	.	.	.	.
8Aq	_	8c#q	_	.	.	.	.	.
8B	peep	8d	peep	.	.	.	.	.
[8B	a	[8d	a	.	.	.	.	.
=42	=42	=42	=42	=42	=42	=42	=42	=42
8B]	_	8d]	_	1EMm	E:7 (E G# B D)	.	.	voice
8A	ny-	8d	ny-	.	.	.	.	.
8B	-way	8d	-way	.	.	.	.	.
8A	you	8c#	you	.	.	.	.	.
8G	wan-	8B	wan-	.	.	.	.	.
8F#	-na	8A	-na	.	.	.	.	.
8E	let	8G	let	.	.	.	.	.
8D	it	8r	.	.	.	.	.	.
=43	=43	=43	=43	=43	=43	=43	=43	=43
8C#q	_	.	.	.	.	.	.	.
4.G	roll	1r	.	1AMm	A:7 (A C# E G)	newline	134.864	voice
8r	.	.	.	.	.	.	.	.
2r	.	.	.	.	.	.	.	.
=44	=44	=44	=44	=44	=44	=44	=44	=44
4.B	Yeah,	4d	Yeah,	1AMm	A:7 (A C# E G)	.	.	voice
.	.	8B	_	.	.	.	.	.
8A	y-	8B	y-	.	.	.	.	.
4B	-yeah,	[4B	-yeah!	.	.	.	.	.
8A	y-	8B]	_	.	.	.	.	.
8B	-yeah	8B	_	.	.	.	.	.
=45	=45	=45	=45	=45	=45	=45	=45	=45
8Gq	_	.	.	.	.	.	.	.
4G#	_	1r	.	1EMm	E:7 (E G# B D)	.	.	voice
4r	.	.	.	.	.	.	.	.
2r	.	.	.	.	.	.	.	.
=46	=46	=46	=46	=46	=46	=46	=46	=46
2r	.	1r	.	1EMm	E:7 (E G# B D)	.	.	voice
8r	.	.	.	.	.	.	.	.
8BB	You've	.	.	.	.	.	.	.
8Gq	_	.	.	.	.	.	.	.
8G#	got	.	.	.	.	.	.	.
8G#	me	.	.	.	.	.	.	.
=47	=47	=47	=47	=47	=47	=47	=47	=47
8Aq	_	8c#q	_	.	.	.	.	.
4B	doin'	4d	doin'	2BMm	B:7 (F# B D# A)	newline	144.89	voice
8B	what	8d	what	.	.	.	.	.
8A	you	8B	you	.	.	.	.	.
8A	want	8B	want	2BMm	B:7 (B D# F# A)	.	.	voice
[8A	me,	[8B	me,	.	.	.	.	.
8A]	_	8B]	_	.	.	.	.	.
8C#	a'	8C#	a'	.	.	.	.	.
=48	=48	=48	=48	=48	=48	=48	=48	=48
8Aq	_	8c#q	_	.	.	.	.	.
8B	ba-	8d	ba-	2BMm	B:7 (F# B D# A)	.	.	voice
8B	-by	8d	-by	.	.	.	.	.
8A	why	8d	why	.	.	.	.	.
8G	you	8c#	you	.	.	.	.	.
8G	wan-	8B	wan-	2BMm	B:7 (B D# F# A)	.	.	voice
8F#	-na	8B	-na	.	.	.	.	.
8E	let	8A	let	.	.	.	.	.
.	.	8Gq	_	.	.	.	.	.
[8E	go	8G#	go	.	.	.	.	.
=49	=49	=49	=49	=49	=49	=49	=49	=49
4E]	_	1r	.	1EMm	E:7 (E G# B D)	.	.	voice
4r	.	.	.	.	.	.	.	.
2r	.	.	.	.	.	.	.	.
=50	=50	=50	=50	=50	=50	=50	=50	=50
1r	.	1r	.	2EMm	E:7 (E G# B D)	.	.	voice
.	.	.	.	2BMm	B:7 (B D# F# A)	.	.	voice
=51	=51	=51	=51	=51	=51	=51	=51	=51
*	*	*	*	*>B_instrumental_fadeout	*>B_instrumental_fadeout	*>B_instrumental_fadeout	*>B_instrumental_fadeout	*>B_instrumental_fadeout
1r	.	1r	.	1EMm	E:7 (E G# B D)	newline	154.891	voice
=52	=52	=52	=52	=52	=52	=52	=52	=52
1r	.	1r	.	1EMm	E:7 (E G# B D)	.	.	voice
=53	=53	=53	=53	=53	=53	=53	=53	=53
1r	.	1r	.	1EMm	E:7 (E G# B D)	.	.	voice
=54	=54	=54	=54	=54	=54	=54	=54	=54
1r	.	1r	.	1EMm	E:7 (E G# B D)	.	.	voice
=55	=55	=55	=55	=55	=55	=55	=55	=55
1r	.	1r	.	1AMm	A:7 (A C# E G)	newline	164.833	voice
=56	=56	=56	=56	=56	=56	=56	=56	=56
1r	.	1r	.	1AMm	A:7 (A C# E G)	.	.	voice
=57	=57	=57	=57	=57	=57	=57	=57	=57
1r	.	1r	.	1EMm	E:7 (E G# B D)	.	.	voice
=58	=58	=58	=58	=58	=58	=58	=58	=58
1r	.	1r	.	1EMm	E:7 (E G# B D)	.	.	voice
r;	.	r;	.	1r;	r	.	168.043	r
r;	.	r;	.	1r;	r	.	170.499	r
*-	*-	*-	*-	*-	*-	*-	*-	*-
!!!BillboardChartDate: 1960/05/16, 1960/04/04
!!!BillboardPeak: 37, 37
!!!BillboardWeeksOnChart: 14, 14
!!!COC: Jimmy Reed
!!!ENC: Nathaniel Condit-Schultz
!!!EST: Awating manual error checking and editing.
!!!OTL: Baby What You Want Me To Do
!!!RDF**chordsym: original McGill chord annotation + (implied pitch class set, with bass pitch in first position)
!!!RDF**harmony: **recip + pitch class of root + harmonic quality
!!!RDF**leadinstrument: original McGill primary instrumentation annotation
!!!RDF**phrase: newline = linebreak in original McGill transcription
!!!RDF**timestamp: McGill audio timestamp in seconds
!!!RDT: 2017/01/12/
!!!SampleActualRank: 93, 80
!!!SampleID#: 1024, 1263
!!!SampleTargetRank: 93, 79
